app/img/tour-world-icon.svg

<svg width="25" height="25" viewBox="0 0 25 25" fill="none" xmlns="http://www.w3.org/2000/svg">
<path d="M12.4697 0C5.62954 0 0 5.6432 0 12.5C0 19.3568 5.62954 25 12.4697 25C19.3099 25 25 19.4175 25 12.5C25 5.58252 19.3705 0 12.4697 0ZM22.6392 11.4078H18.0993C17.8571 8.25243 16.8281 5.27913 15.0726 2.6699C19.1283 3.70146 22.155 7.16019 22.6392 11.4078ZM9.14044 13.6529H15.799C15.4964 16.7476 14.3462 19.6602 12.4697 22.1481C10.5932 19.6602 9.4431 16.7476 9.14044 13.6529ZM9.14044 11.4078C9.4431 8.31311 10.5932 5.40049 12.4697 2.91262C14.3462 5.40049 15.5569 8.31311 15.799 11.4078H9.14044ZM9.92736 2.60922C8.17191 5.21845 7.14286 8.19175 6.90073 11.3471H2.36077C2.7845 7.16019 5.87167 3.70146 9.92736 2.60922ZM2.36077 13.6529H6.90073C7.14286 16.8083 8.17191 19.7816 9.92736 22.3908C5.87167 21.3592 2.7845 17.9005 2.36077 13.6529ZM15.0726 22.4515C16.8281 19.8422 17.8571 16.8689 18.0993 13.7136H22.6392C22.155 17.9005 19.1283 21.3592 15.0726 22.4515Z" fill="#65CE54"/>
</svg>

<svg width="25" height="25" fill="none" xmlns="http://www.w3.org/2000/svg"><path d="M12.47 0C5.63 0 0 5.643 0 12.5S5.63 25 12.47 25C19.31 25 25 19.418 25 12.5 25 5.583 19.37 0 12.47 0zm10.17 11.408H18.1a18.02 18.02 0 00-3.027-8.738c4.055 1.031 7.082 4.49 7.566 8.738zm-13.5 2.245h6.66a16.768 16.768 0 01-3.33 8.495 16.769 16.769 0 01-3.329-8.495zm0-2.245a16.768 16.768 0 013.33-8.495c1.876 2.487 3.087 5.4 3.329 8.495H9.14zm.787-8.799a18.02 18.02 0 00-3.026 8.738H2.36C2.784 7.16 5.87 3.701 9.927 2.61zM2.361 13.653H6.9a18.02 18.02 0 003.026 8.738c-4.055-1.032-7.143-4.49-7.566-8.738zm12.712 8.798a18.02 18.02 0 003.026-8.737h4.54c-.484 4.187-3.51 7.645-7.566 8.737z" fill="#65CE54"/></svg>
